X:1
T:Mercy for All
T:Mercy for All
T:Gabriel P. Benjamin
T:Frances Jane (Fanny) Crosby, 1869
T:Public Domain Courtesy of the Cyber Hymnal™
T:Public Domain Courtesy of the Cyber Hymnal™
C:Gabriel P. Benjamin
Z:Public Domain
Z:Courtesy of the Cyber Hymnal™
%%score ( 1 2 ) ( 3 4 )
L:1/8
Q:1/4=98
M:4/4
K:Eb
V:1 treble 
V:2 treble 
V:3 bass 
V:4 bass 
V:1
 E>[EF] | [EG]2 [EG]>[FA] [GB]2 [Ge][Bd] | [Ac]2 [Ae]>[Ac] [GB]2 E>[EF] | %3
w: 1.~We are|bought with a price by the|Lamb that was slain; He has|
w: 2.~We may|drink if we will of the|foun- tain so free That is|
w: 3.~O the|rich- es of grace that in|Je- sus a- bound! With the|
w: 4.~If we|walk in the path that our|Mas- ter has trod— If we|
 [EG]2 [EG]>[FA] [GB]2 [Ge]2 | [Fd]2 [Fd]>[Ec] !fermata![DB]2 E>[EF] | %5
w: con- quered the grave— He|liv- eth a- gain! At the|
w: flow- ing to- day for|you and for me; With our|
w: full- ness of joy His|peo- ple are crowned. At the|
w: die un- to sin, but|live un- to God, When we|
 [EG]2 [EG]>[FA] [GB]2 [Ge][Bd] | [Ac]2 [Ff]>[Fe] d4 | [Ge][EG][DA][EB] [Ec]2 [Af]>[Af] | %8
w: foot of the cross He will|an- swer our call:|Bless- èd be the Lord! there is|
w: bur- den of sin at its|brink we may fall:|Bless- èd be the Lord! there is|
w: door of His love He will|an- swer our call:|Bless- èd be the Lord! there is|
w: pass the dark vale He will|ans- wer our call:|Bless- èd be the Lord! there is|
 [Ge]2 [Fd]>[Ad] [Ge]4 ||"^Refrain" [GB]2 [EG]>[GB] [Ge]4 | [Ae]2 [Ac]>[Ae] [GB]4 | %11
w: mer- cy for all!|||
w: mer- cy for all!|||
w: mer- cy for all!|||
w: mer- cy for all!|||
 [GB][GB][EG][FA] [GB]2 [Ge][Ge] | [Fd]2 [Fd]>[Ec] [DB]4 | [GB]2 [EG]>[GB] [Ge]4 | %14
w: |||
w: |||
w: |||
w: |||
 [Ae]2 [Ac]>[Ae] [GB]4 | [GB][EG][DA][EB] [Ec]2 [Af]>[Af] | [Ge]2 [Fd]>[Ad] [Ge]4 |] %17
w: |||
w: |||
w: |||
w: |||
V:2
 E3/2 x/ | x8 | x6 E3/2 x/ | x8 | x6 E3/2 x/ | x8 | x4 (F2 A2) | x8 | x8 || x8 | x8 | x8 | x8 | %13
 x8 | x8 | x8 | x8 |] %17
V:3
 [E,G,]>[E,A,] | [E,B,]2 [E,B,]>[E,B,] [E,B,]2 [E,B,][G,E] | %2
w: ~ ~|~ ~ ~ ~ ~ ~|
 [A,E]2 [A,C]>[A,E] [E,E]2 [E,G,]>[E,A,] | [E,B,]2 [E,B,]>[E,B,] [E,E]2 [E,B,]2 | %4
w: ~ ~ ~ ~ ~ ~|~ ~ ~ ~ ~|
 [F,B,]2 [F,=A,]>[F,A,] !fermata![B,,B,]2 [E,G,]>[E,A,] | %5
w: ~ ~ ~ ~ ~ ~|
 [E,B,]2 [E,B,]>[E,B,] [E,B,]2 [E,B,][G,E] | [A,E]2 [=A,C]>[A,C] B,4 | %7
w: ~ ~ ~ ~ ~ ~|~ ~ ~ ~|
 [E,B,][E,B,][F,B,][G,B,] A,2 [F,C]>[F,C] | B,2 [B,,B,]>[B,,B,] [E,B,]4 || %9
w: ~ ~ ~ ~ ~ ~ ~|~ ~ ~ ~|
 [E,E]2 [E,B,]>[E,B,] [E,B,]4 | [A,C]2 [A,E]>[A,C] [E,B,]4 | %11
w: Mer- cy for all!|Mer- cy for all!|
 [E,B,][E,B,][E,B,][E,B,] [E,B,]2 [E,B,][E,B,] | [F,B,]2 [F,=A,]>[F,A,] [B,,B,]4 | %13
w: Bless- èd be the Lord! there is|mer- cy for all!|
 [E,B,]2 [E,B,]>[E,B,] [E,B,]4 | [A,C]2 [A,E]>[A,C] [E,B,]4 | %15
w: Mer- cy for all!|Mer- cy for all!|
 [E,E][E,B,][F,B,][G,B,] A,2 [F,C]>[F,C] | B,2 [B,,B,]>[B,,B,] [E,B,]4 |] %17
w: Bless- èd be the Lord! there is|mer- cy for all!|
V:4
 x2 | x8 | x8 | x8 | x8 | x8 | x4 B,4 | x4 A,2 x2 | B,2 x6 || x8 | x8 | x8 | x8 | x8 | x8 | %15
 x4 A,2 x2 | B,2 x6 |] %17

